www/assets/icons/turn_slight_right.svg

<svg xmlns="http://www.w3.org/2000/svg" width="24" height="24" viewBox="0 0 24 24" fill='currentColor'><path d="M10.84 4h5.66v5.66h-2V7.41l-5 5V20h-2v-7.58c0-.53.21-1.04.59-1.41l5-5h-2.25z"/></svg>

<svg width="24" height="24" viewBox="0 0 24 24" xmlns="http://www.w3.org/2000/svg" fill='currentColor'><path d="M10.84 4H16.5V9.66H14.5V7.41L9.5 12.41V20H7.5V12.42C7.5 11.89 7.71 11.38 8.09 11.01L13.09 6.01H10.84V4Z"/></svg>
